data/pieces/simple/blackKing.svg

<svg xmlns="http://www.w3.org/2000/svg" width="1000pt" height="1000pt" viewBox="0 0 1000 1000"><path d="M56 495c0-92 71-131 152-131 61 0 112 20 169 58l2-2s-11-27-11-62c0-50 20-117 102-135v-42h-60v-60h60V61h60v60h60v60h-60v42c82 18 102 85 102 135 0 35-11 62-11 62l2 2c57-38 108-58 169-58 81 0 152 39 152 131 0 127-75 198-140 235l-22 138c-12 30-77 71-282 71s-270-41-282-71l-22-138C131 693 56 622 56 495" style="stroke-width:2;stroke-linecap:butt;stroke-linejoin:miter;stroke:#fff;stroke-opacity:1;stroke-miterlimit:10;fill-rule:nonzero;fill:#fff;fill-opacity:1"/><path d="M56 495c0-92 71-131 152-131 61 0 112 20 169 58l2-2s-11-27-11-62c0-50 20-117 102-135v-42h-60v-60h60V61h60v60h60v60h-60v42c82 18 102 85 102 135 0 35-11 62-11 62l2 2c57-38 108-58 169-58 81 0 152 39 152 131 0 127-75 198-140 235l-22 138c-12 30-77 71-282 71s-270-41-282-71l-22-138C131 693 56 622 56 495m60 10c0 94 54 147 109 179 66-20 166-28 245-28-20-161-181-232-252-232s-102 29-102 81m34 14c0-30 18-62 58-62 111 0 205 98 219 171-71 0-140 6-196 22-63-38-81-101-81-131m108 278 6 43c96-15 164-21 236-21s140 6 236 21l6-43c-90-17-165-24-242-24s-152 7-242 24m272-141c79 0 179 8 245 28 55-32 109-85 109-179 0-52-31-81-102-81s-232 71-252 232m43-30c14-73 108-171 219-171 40 0 58 32 58 62s-18 93-81 131c-56-16-125-22-196-22" style="stroke:none;fill-rule:nonzero;fill:#000;fill-opacity:1"/></svg>

<?xml version="1.0" encoding="UTF-8"?>
<!--
    Image is based on original work of Max Froumentin (mf@w3.org) which
    used to be available at:

    http://people.w3.org/maxf/ChessGML/ChessSophia.svg

    These images are under the W3C Software Notice and License, see
    COPYING.html for details.
-->
<svg xmlns="http://www.w3.org/2000/svg" xmlns:xlink="http://www.w3.org/1999/xlink" width="1000pt" height="1000pt" viewBox="0 0 1000 1000" version="1.1">
<g id="surface0">
<path style="stroke-width:2;stroke-linecap:butt;stroke-linejoin:miter;stroke:white;stroke-opacity:1;stroke-miterlimit:10;fill-rule:nonzero;fill:white;fill-opacity:1;" d="M 56 495 C 56 403 127 364 208 364 C 269 364 320 384 377 422 L 379 420 C 379 420 368 393 368 358 C 368 308 388 241 470 223 L 470 181 L 410 181 L 410 121 L 470 121 L 470 61 L 530 61 L 530 121 L 590 121 L 590 181 L 530 181 L 530 223 C 612 241 632 308 632 358 C 632 393 621 420 621 420 L 623 422 C 680 384 731 364 792 364 C 873 364 944 403 944 495 C 944 622 869 693 804 730 L 782 868 C 770 898 705 939 500 939 C 295 939 230 898 218 868 L 196 730 C 131 693 56 622 56 495"/>
<path style="stroke:none;fill-rule:nonzero;fill:black;fill-opacity:1;" d="M 56 495 C 56 403 127 364 208 364 C 269 364 320 384 377 422 L 379 420 C 379 420 368 393 368 358 C 368 308 388 241 470 223 L 470 181 L 410 181 L 410 121 L 470 121 L 470 61 L 530 61 L 530 121 L 590 121 L 590 181 L 530 181 L 530 223 C 612 241 632 308 632 358 C 632 393 621 420 621 420 L 623 422 C 680 384 731 364 792 364 C 873 364 944 403 944 495 C 944 622 869 693 804 730 L 782 868 C 770 898 705 939 500 939 C 295 939 230 898 218 868 L 196 730 C 131 693 56 622 56 495 M 116 505 C 116 599 170 652 225 684 C 291 664 391 656 470 656 C 450 495 289 424 218 424 C 147 424 116 453 116 505 M 150 519 C 150 489 168 457 208 457 C 319 457 413 555 427 628 C 356 628 287 634 231 650 C 168 612 150 549 150 519 M 258 797 L 264 840 C 360 825 428 819 500 819 C 572 819 640 825 736 840 L 742 797 C 652 780 577 773 500 773 C 423 773 348 780 258 797 M 530 656 C 609 656 709 664 775 684 C 830 652 884 599 884 505 C 884 453 853 424 782 424 C 711 424 550 495 530 656 M 573 626 C 587 553 681 455 792 455 C 832 455 850 487 850 517 C 850 547 832 610 769 648 C 713 632 644 626 573 626"/>
</g>
</svg>
